X:344013
T:High Road to Linton (+Brass)
C:Various printed collections p1,2 (1796/1798) / Bobby MacLeod (p3,4 1957)
B: Scots Guard
H:
O:Kevin Fraser
Z:Kevin Fraser
Q:1/4=160
K:HP
M:C/
L:1/8
R:Reel
U: R = ///
U: r = //
U: V = !accent!
V:M gstem=up stem=down name="Melody" sname="Melody" transpose=2
V:H gstem=up stem=down name="Harmony" sname="Harmony" transpose=2
V:C gstem=up stem=down name="C-Harmony" sname="C-Harmony" transpose=2
V:S gstem=up stem=down dyn=up stafflines=1 clef=perc middle=G name="Snare" sname="Snare" sname="Snare"
V:B gstem=up stem=down clef=none dyn=up name="Bass" sname="Bass"
V:T gstem=up stem=down clef=none dyn=up name="Tenor" sname="Tenor"
V:Tuba clef=bass octave=-2 transpose=2 name="Tuba" sname="Tuba"
V:BC clef=treble transpose=2 name="Brass Chord" sname="Chord 1" 
V:Trombone clef=treble transpose=2 name="Trombone" sname="Trombone" 
V:BD clef=treble transpose=2 name="Brass Chord 2" sname="Chord 2" 
V:Trumpet clef=treble transpose=2 name="Trumpet" sname="Trumpet" 
% %MIDI gchord off
%%MIDI gracedivider 40
I:linebreak $
% %score {M H Trumpet Trombone Tuba}
%%MIDI vol 100
V:M
%%MIDI program 109
V:Tuba
%%MIDI program 59
V:Trumpet
%%MIDI program 66
V:Trombone
%%MIDI program 58
[V:M]|:         "A"{g}c<e{A}e>f {ag}(a2a)>e   | "D"{gf}g2 f<e "A"{ag}a2 c{e}<A    | {g}c<e{A}e>f {ag}(a2a)>e   | "D"{g}f<a{ef}e>c "E"{gBd}B2 "A"{G}A2 :| $
[V:M]|:         "A"{g}c<e{A}e>g "D"{a}f>d{G}d>f | "A"{gef}e>c{G}c>e "E7"{g}f>B{G}B>d | "A"{g}c<e{A}e>g "D"{a}f>d{G}d>f | "A"{gef}e>ca>c   "E"{gBd}B2 "A"{G}A2 :| $
[V:M]|:         "A"a2 {g}a2     e>f{ag}a2    | e>f{ag}a>e     {g}f>B{G}B>e | a2 {g}a2     e>f{ag}a>e   | "D"{g}f<a{ef}e>c "E"{gBd}B2 "A"{G}A2 :| $
[V:M]|:         "A"{g}c>d{g}e>c "D"{g}d>e{g}f>d | "A"{g}c>d{g}e>c "D"{g}B>c{g}d>B | "A"{g}c>d{g}e>c "D"{g}d>e{G}f>d  | "D"{g}f<a{ef}e>c "E"{gBd}B2 "A"{G}A2 :| $
[V:Tuba]|:         A2 z2 A2z2  | D2z2 A2z2    | A2z2 A2z2   | D2 D2 E2 A2 :| $
w: Tuba | Notes In | Bagpipe | Key !!
[V:Tuba]|:         A2 z2 D4 | A2 z2 E4 | A2 z2 D4  | D4 E2 A2 :| $
[V:Tuba]|:         A2 z2 A2 z2    | D2 z2 D2 z2 | A2 z2 A2 z2   | D4 E2 A2 :| $
[V:Tuba]|:         A2 z2 D4   | A2 z2 E4   | A2 z2 D4    | D4 E2 A2 :| $
[V:Trumpet]|:         z2 E2 z2 A2    | z2 E2 z2 E2   | z2 E2 z2 A2     | z2 A2  E2 E2 :| $
[V:Trumpet]|:         z2 E2 z2 A2  | z2 E2 z2 E2 | z2 E2 z2 A2   | z2 A2  E2 E2 :| $
[V:Trumpet]|:         E2 z2 E2 z2    | z2 E2 z2 E2  | E2 z2 E2 z2   | z2 A2  E2 E2 :| $
[V:Trumpet]|:         z2 E2 z2 A2    | z2 E2 z2 E2   | z2 E2 z2 A2     | z2 A2  E2 E2 :| $
[V:Trombone]|:         z2 C2  F4   | z2 C2  z2 E2   | z2 C2  F4    | F4 E2 C2 :| $
[V:Trombone]|:         z2 C2  z2 F2 | z2 C2  z2 E2 | z2 C2  z2 F2  | z2 F2 B2 E2 :| $
[V:Trombone]|:         C2 z2 C2 z2    | F2 C2  z2 E2 | C2 z2 C2 z2   | F4 E2 C2 :| $
[V:Trombone]|:         z2 C2  F4   | z2 C2  z2 E2   | z2 C2  F4    | F4 E2 C2 :| $

